resources/svg/mood-sad.svg

<svg width="15" height="15" viewBox="0 0 15 15" fill="none" xmlns="http://www.w3.org/2000/svg">
<path fill-rule="evenodd" clip-rule="evenodd" d="M0 7.5C0 3.35786 3.35786 0 7.5 0C11.6421 0 15 3.35786 15 7.5C15 11.6421 11.6421 15 7.5 15C3.35786 15 0 11.6421 0 7.5ZM4 6H5V5H4V6ZM10 6H11V5H10V6ZM4.9001 10.3C6.2001 8.56667 8.8001 8.56667 10.1001 10.3L10.9001 9.7C9.2001 7.43333 5.8001 7.43333 4.1001 9.7L4.9001 10.3Z" fill="black"/>
</svg>

<svg viewBox="0 0 15 15" fill="none" xmlns="http://www.w3.org/2000/svg" fill="currentColor"><path fill-rule="evenodd" clip-rule="evenodd" d="M0 7.5a7.5 7.5 0 1115 0 7.5 7.5 0 01-15 0zM4 6h1V5H4v1zm6 0h1V5h-1v1zm-5.1 4.3a3.25 3.25 0 015.2 0l.8-.6c-1.7-2.267-5.1-2.267-6.8 0l.8.6z" fill="currentColor"/></svg>
